X: 13172
T: First Of May, The
R: hornpipe
M: 4/4
K: Dmixolydian
|:A,DDE FF D/E/F|GFGA B/B/B AB|cBAF GcBA|GFDB, C/C/C B,C|
A,DDE FF D/E/F|GFGA BBAB|cBAF GAGF|1 D/E/D DE D3 B,:|2 D/E/D DE D2Bc||
|:d2dB c2cA|BAGB A2 AB|cBAF GcBA|GFDB, CCBc|
d2dB c2cA|BAGB A2 AB|cBAF GAGF|D/E/D DE D2 Bc|
d2dB c2cA|BAGB A2 AB|cBAF GcBA|GFDB, CCB,C
A,DDE FF D/E/F|GFGA BBAB|cBAF GAGF|D/E/D DE D2 CB,||

